X: 6910
T: Cheer Up Old Hag
R: jig
M: 6/8
K: Gmajor
c|:SBGE EDE|GED D2c|BGE GAB|cBc edc|
BGE EDE|GED D2c|BAG AGE|G3 G2||
D|GAG G2B|ded d2c|BcA GBd|e2f g2D|
GBd gfe|dec BcA|BGE GAB|1 c3B3:|2 dBc edc !Dacapo!||

